outputs/icons/editor/edit_round.svg

<svg width="1200" height="1200" viewBox="0 0 1200 1200" fill="none" xmlns="http://www.w3.org/2000/svg"><g clip-path="url(#clip0_238_242)"><path d="M918.495 164.503L1035.495 281.503C1054.995 301.003 1054.995 332.503 1035.495 352.003L943.995 443.503L756.495 256.003L847.995 164.503C867.495 145.003 898.995 145.003 918.495 164.503Z" fill="black"/><path d="M150 1025.005V873.005C150 866.005 152.5 860.005 157.5 855.005L703 309.503L890.5 497.003L344.5 1042.505C340 1047.505 333.5 1050.005 327 1050.005H175C161 1050.005 150 1039.005 150 1025.005Z" fill="black"/></g><defs><clipPath id="clip0_238_242"><path width="24" fill="white" d="M0 0H1200V1200H0V0z"/></clipPath></defs></svg>

<svg xmlns="http://www.w3.org/2000/svg" width="1200" height="1200" fill="none"><g fill="#000" clip-path="url(#a)"><path d="m918.495 164.503 117 117c19.5 19.5 19.5 51 0 70.5l-91.5 91.5-187.5-187.5 91.5-91.5c19.5-19.5 51-19.5 70.5 0M150 1025.005v-152q0-10.5 7.5-18L703 309.503l187.5 187.5-546 545.502c-4.5 5-11 7.5-17.5 7.5H175c-14 0-25-11-25-25"/></g><defs><clipPath id="a"><path fill="#fff" d="M0 0h1200v1200H0z"/></clipPath></defs></svg>
